outputs/icons/communication/rss_feed_sharp.svg

<svg xmlns="http://www.w3.org/2000/svg" width="1200" height="1200" fill="none"><g fill="#000" clip-path="url(#a)"><path d="M200 646.495v-141.5c273.5 0 495 221.5 495 495H553.5c0-195-158.5-353.5-353.5-353.5"/><path d="M200 363.497v-141.5c429.5 0 778 348.498 778 777.998H836.5c0-351.5-285-636.498-636.5-636.498M418 891c0 60.195-48.801 109-109 109s-109-48.805-109-109c0-60.2 48.801-109 109-109s109 48.8 109 109"/></g><defs><clipPath id="a"><path fill="#fff" d="M0 0h1200v1200H0z"/></clipPath></defs></svg>

<svg width="1200" height="1200" viewBox="0 0 1200 1200" fill="none" xmlns="http://www.w3.org/2000/svg"><g clip-path="url(#clip0_124_697)"><path fill-rule="evenodd" d="M200 646.495V504.995C473.5 504.995 695 726.495 695 999.995H553.5C553.5 804.995 395 646.495 200 646.495ZM200 363.497V221.997C629.5 221.997 978 570.495 978 999.995H836.5C836.5 648.495 551.5 363.497 200 363.497ZM418 891C418 951.195 369.199 1000 309 1000C248.801 1000 200 951.195 200 891C200 830.8 248.801 782 309 782C369.199 782 418 830.8 418 891Z" fill="#1D1E23"/></g><defs><clipPath id="clip0_124_697"><path width="24" fill="white" d="M0 0H1200V1200H0V0z"/></clipPath></defs></svg>
